X:1682
T:Bobby Casey's
S:session
R:Reel
O:Ireland
M:4/4
K:D
DFAB-B2AB | d2fd edBA | DFAB-B2AB | dfaf edBA|\
DFAB-B2AB | d3f e2eg | 
fgaf g2fe | defd edBA::\
d3f eAA2 | defg afge | 
d2fd eBB2 | gBB2dBAB|\
d2fd efge | fddf edBd | ABdf bafb | afeg fdd2:|


